X: 368
T:?
M:3/4
L:1/8
R:waltz
Z:James T. Peeples
K:G
D2 GA d2 | AB G4 |  D2  g2 d2  | ed  B4 | D2 g2 d2 | ed BA G2 | D2 GB d2 |
AB G4 |
<end>
<start>
